X:1
T:[ID 6-51]
T:[ID 6-51]
T:Bezeichnung standardisiert: Tantz Tantz
T:Urheber unbekannt Erstbeleg: 1775 (Datum in der schriftlichen Quelle) Datum in der hier transkribierten schriftlichen Quelle: 1792
C:Urheber unbekannt
C:Erstbeleg: 1775 (Datum in der schriftlichen Quelle)
C:Datum in der hier transkribierten schriftlichen Quelle: 1792
L:1/8
M:2/4
K:G
V:1 treble 
V:1
 G2 DG | F/G/A/F/ DA | BA/B/ c/B/A/G/ | F/G/A/F/ DB/c/ | dBcA | BA/G/ FD | d/B/d/B/ c/A/c/A/ | %7
 BA/G/ FD | EG F/G/A/F/ | G2 G,2 :: d2 Ad | ^c/d/e/c/ Ae | fe/f/ g/f/e/d/ | ^c/d/e/c/ Af/g/ | %14
 afge | fe/d/^cA | a/f/a/f/ g/e/g/e/ | fe/d/^cA | Bd^c/d/e/c/ | d2 D2 | d2 Bd | c2 Ac | %22
 BA/B/ c/B/A/G/ | F/G/A/F/ DB/c/ |"^O)" dBcA | BA/G/ FD |"^O)" dBcA | BA/G/ FD | DG F/G/A/F/ | %29
 G2 G,2 :| %30

